!!! OTL: Literature122
!!! Chapter: 5
!!! Section: IV
!!! Page: 373
!!! Mode: 
!!! Encoder: DJB
**kern
*staff1
*I"Piano
=1-
*clefG2
*k[]
*a:
*M2/4
4r
8r
16r
16ee\
=2
8ee\L
16dd\L
16dd\JJ
16cc\LL
16cc\J
8b\J
=3
4a/
8a/
16r
16ff\
=4
8.ff\L
16ee\Jk
8dd\L
16cc\L
16cc\JJ
=5
4.b-\
16r
16a/
=6
8.g#/L
16g#/Jk
8a/L
8b/J
=7
4cc\
8cc\
16r
16cc\
=8
8.b\L
16b\Jk
8.g#/L
16g#/Jk
=9
4a/
8r
16r
16ee\
=10
!!linebreak:original
8.ee\L
16dd\Jk
8cc#\L
16b\L
16b\JJ
=11
4a/
8a\L
8dd\J
=12
8dd\L
16cc\L
16cc\JJ
8b-/L
8a/J
=13
4g/
8r
16r
16cc\
=14
8.cc\L
16cc\Jk
8.b/L
16a/Jk
=15
8g#/
4a/
16r
16cc\
=16
8.cc\L
16b-\Jk
8a/L
8g#/J
=17
4a/
4r
==
*-
